apps/scalable/pcsxr.svg

<svg xmlns="http://www.w3.org/2000/svg" style="isolation:isolate" width="256" height="256"><defs><filter id="a" width="270.648" height="254.338" x="-7.32" y="2.95" filterUnits="userSpaceOnUse"><feGaussianBlur xmlns="http://www.w3.org/2000/svg" in="SourceGraphic" stdDeviation="4.294"/><feOffset xmlns="http://www.w3.org/2000/svg" dy="4" result="pf_100_offsetBlur"/><feFlood xmlns="http://www.w3.org/2000/svg" flood-opacity=".4"/><feComposite xmlns="http://www.w3.org/2000/svg" in2="pf_100_offsetBlur" operator="in" result="pf_100_dropShadow"/><feBlend xmlns="http://www.w3.org/2000/svg" in="SourceGraphic" in2="pf_100_dropShadow"/></filter></defs><path fill="#ECECEC" d="M165.685 11.947c74.055 0 84.639 10.557 84.639 84.544v59.251c0 73.986-10.584 84.543-84.639 84.543h-75.37c-74.055 0-84.639-10.557-84.639-84.543V96.491c0-73.987 10.584-84.544 84.639-84.544h75.37z" filter="url(#a)"/><path fill="#FFF" d="M5.676 126.116v29.626c0 73.986 10.584 84.543 84.639 84.543h75.37c74.055 0 84.639-10.557 84.639-84.543v-29.626H5.676z" opacity=".4"/><g fill-rule="evenodd"><path fill="#DE0029" d="M135.12 88.059l-.118 108.321-29.023-9.439V59.62l37.046 9.795c23.712 6.373 38.224 18.761 37.988 40.473-.236 25.252-11.916 35.399-34.685 28.791V88.884c0-6.019-11.208-6.371-11.208-.825z"/><path fill="#F3C202" d="M92.647 165.935l-13.686 4.603c-8.849 3.068-16.399-4.129-8.258-7.081l6.606-2.358-24.894-7.908c-7.669 2.597-14.866 8.143-14.393 15.932.472 7.904 18.522 9.793 32.445 12.035 12.977 2.123 24.775.944 35.512-2.833v-8.142l-13.332-4.248zm42.59 30.445l25.366-8.851-25.601-8.141v16.401l.235.591z"/><path fill="#326DB3" d="M202.722 172.663l.471-.119c11.09-3.893 15.81-9.323 14.631-14.395-1.888-8.495-15.456-13.098-36.339-14.632-14.983-1.062-29.73 2.241-44.123 7.197l-2.36.827 25.838 8.023 15.101-5.074c15.809-2.949 22.181 2.242 6.961 7.08l-7.551 2.595 27.371 8.498zm-96.743-37.523l-11.445 3.893 11.445 3.54v-7.433z"/><path fill="#00AA9E" d="M160.603 187.529l42.119-14.866-27.372-8.498-40.348 13.806v1.417l25.601 8.141zm-54.624-26.078l-13.331 4.484 13.331 4.248v-8.732zm29.023 6.964v-16.874l25.837 8.023-25.837 8.851zm-57.693-7.316l28.67-10.266v-8.26l-11.445-3.54-41.529 14.042c-.118 0-.354.116-.589.116l24.893 7.908z"/></g><g opacity=".4"><linearGradient id="b" x1=".517" x2=".517" y2="1"><stop offset="0%" stop-color="#fff"/><stop offset="12.5%" stop-opacity=".098" stop-color="#fff"/><stop offset="92.5%" stop-opacity=".098"/><stop offset="100%" stop-opacity=".498"/></linearGradient><path fill="none" stroke="url(#b)" stroke-linecap="round" stroke-linejoin="round" stroke-width="4.077" d="M165.685 11.947c74.055 0 84.639 10.557 84.639 84.544v59.251c0 73.986-10.584 84.543-84.639 84.543h-75.37c-74.055 0-84.639-10.557-84.639-84.543V96.491c0-73.987 10.584-84.544 84.639-84.544h75.37z" vector-effect="non-scaling-stroke"/></g></svg>

<svg xmlns="http://www.w3.org/2000/svg" style="isolation:isolate" width="256" height="256" viewBox="0 0 256 256">
 <defs>
  <filter id="inBI8Oc1xqOxcO6wx3oVDm8LoDnDBGkY" width="270.648" height="254.338" x="-7.32" y="2.95" filterUnits="userSpaceOnUse">
   <feGaussianBlur xmlns="http://www.w3.org/2000/svg" in="SourceGraphic" stdDeviation="4.294"/>
   <feOffset xmlns="http://www.w3.org/2000/svg" dx="0" dy="4" result="pf_100_offsetBlur"/>
   <feFlood xmlns="http://www.w3.org/2000/svg" flood-opacity=".4"/>
   <feComposite xmlns="http://www.w3.org/2000/svg" in2="pf_100_offsetBlur" operator="in" result="pf_100_dropShadow"/>
   <feBlend xmlns="http://www.w3.org/2000/svg" in="SourceGraphic" in2="pf_100_dropShadow" mode="normal"/>
  </filter>
 </defs>
 <g filter="url(#inBI8Oc1xqOxcO6wx3oVDm8LoDnDBGkY)">
  <path fill="#ECECEC" d="M 165.685 11.947 C 239.74 11.947 250.324 22.504 250.324 96.491 L 250.324 155.742 C 250.324 229.728 239.74 240.285 165.685 240.285 L 90.315 240.285 C 16.26 240.285 5.676 229.728 5.676 155.742 L 5.676 96.491 C 5.676 22.504 16.26 11.947 90.315 11.947 L 165.685 11.947 Z"/>
 </g>
 <g opacity=".4">
  <path fill="#FFFFFF" d="M 5.676 126.116 L 5.676 155.742 C 5.676 229.728 16.26 240.285 90.315 240.285 L 165.685 240.285 C 239.74 240.285 250.324 229.728 250.324 155.742 L 250.324 126.116 L 5.676 126.116 Z"/>
 </g>
 <g>
  <path fill="#DE0029" fill-rule="evenodd" d="M 135.12 88.059 L 135.002 196.38 L 105.979 186.941 L 105.979 59.62 L 143.025 69.415 C 166.737 75.788 181.249 88.176 181.013 109.888 C 180.777 135.14 169.097 145.287 146.328 138.679 L 146.328 88.884 C 146.328 82.865 135.12 82.513 135.12 88.059 L 135.12 88.059 Z"/>
  <path fill="#F3C202" fill-rule="evenodd" d="M 92.647 165.935 L 78.961 170.538 C 70.112 173.606 62.562 166.409 70.703 163.457 L 77.309 161.099 L 52.415 153.191 C 44.746 155.788 37.549 161.334 38.022 169.123 C 38.494 177.027 56.544 178.916 70.467 181.158 C 83.444 183.281 95.242 182.102 105.979 178.325 L 105.979 170.183 L 92.647 165.935 Z M 135.237 196.38 L 160.603 187.529 L 135.002 179.388 L 135.002 195.789 L 135.237 196.38 Z"/>
  <path fill="#326DB3" fill-rule="evenodd" d="M 202.722 172.663 L 203.193 172.544 C 214.283 168.651 219.003 163.221 217.824 158.149 C 215.936 149.654 202.368 145.051 181.485 143.517 C 166.502 142.455 151.755 145.758 137.362 150.714 L 135.002 151.541 L 160.84 159.564 L 175.941 154.49 C 191.75 151.541 198.122 156.732 182.902 161.57 L 175.351 164.165 L 202.722 172.663 Z M 105.979 135.14 L 94.534 139.033 L 105.979 142.573 L 105.979 135.14 Z"/>
  <path fill="#00AA9E" fill-rule="evenodd" d="M 160.603 187.529 L 202.722 172.663 L 175.35 164.165 L 135.002 177.971 L 135.002 179.388 L 160.603 187.529 Z M 105.979 161.451 L 92.648 165.935 L 105.979 170.183 L 105.979 161.451 Z M 135.002 168.415 L 135.002 151.541 L 160.839 159.564 L 135.002 168.415 Z M 77.309 161.099 L 105.979 150.833 L 105.979 142.573 L 94.534 139.033 L 53.005 153.075 C 52.887 153.075 52.651 153.191 52.416 153.191 L 77.309 161.099 Z"/>
 </g>
 <g opacity=".4">
  <linearGradient id="_lgradient_177" x1=".517" x2=".517" y1="0" y2="1">
   <stop offset="0%" style="stop-color:rgb(255,255,255)"/>
   <stop offset="12.5%" stop-opacity=".098" style="stop-color:rgb(255,255,255)"/>
   <stop offset="92.5%" stop-opacity=".098" style="stop-color:rgb(0,0,0)"/>
   <stop offset="100%" stop-opacity=".498" style="stop-color:rgb(0,0,0)"/>
  </linearGradient>
  <path fill="none" stroke="url(#_lgradient_177)" stroke-linecap="round" stroke-linejoin="round" stroke-width="4.077" d="M 165.685 11.947 C 239.74 11.947 250.324 22.504 250.324 96.491 L 250.324 155.742 C 250.324 229.728 239.74 240.285 165.685 240.285 L 90.315 240.285 C 16.26 240.285 5.676 229.728 5.676 155.742 L 5.676 96.491 C 5.676 22.504 16.26 11.947 90.315 11.947 L 165.685 11.947 Z" vector-effect="non-scaling-stroke"/>
 </g>
</svg>
